brandFactory_export/3.Masa/Cinturon de seguridad _3Masa.svg

<?xml version="1.0" encoding="UTF-8"?>
<svg width="24px" height="24px" viewBox="0 0 24 24" version="1.1" xmlns="http://www.w3.org/2000/svg" xmlns:xlink="http://www.w3.org/1999/xlink">
    <title>3.Masa/Cinturon de seguridad _3Masa</title>
    <g id="Symbols" stroke="none" stroke-width="1" fill="none" fill-rule="evenodd">
        <g id="3.Masa/Cinturon-de-seguridad-_3Masa" fill="#5CB615" fill-rule="nonzero">
            <path d="M23.3344538,18.0773109 C23.7210084,18.4638655 23.7210084,19.0857143 23.3344538,19.4722689 L19.4453782,23.3680672 C19.2537815,23.5630252 19.0016807,23.6571429 18.7495798,23.6571429 C18.497479,23.6571429 18.2453782,23.5630252 18.0537815,23.3680672 L16.0134454,21.3243697 L13.8554622,21.1966387 C13.6134454,21.1831933 13.3882353,21.0789916 13.2168067,20.9109244 L10.2655462,17.9563025 C9.88235294,17.5697479 9.88235294,16.9478992 10.2655462,16.5613445 L10.7159664,16.107563 L9.10588235,14.4941176 C8.9210084,14.3092437 8.81680672,14.0605042 8.81680672,13.794958 C8.81680672,13.5327731 8.9210084,13.2840336 9.10588235,13.0957983 L12.994958,9.19663866 C13.3781513,8.81008403 14.0033613,8.81008403 14.3865546,9.19663866 L15.9966387,10.810084 L16.4470588,10.3596639 C16.8302521,9.97310924 17.4554622,9.97310924 17.8386555,10.3596639 L20.7865546,13.3142857 C20.9478992,13.4756303 21.0487395,13.6907563 21.0689076,13.9159664 L21.2705882,16.0134454 L23.3344538,18.0773109 L23.3344538,18.0773109 Z M11.892437,7.86554622 C11.8756303,7.88571429 11.8588235,7.90252101 11.8420168,7.91932773 L6.80336134,12.9647059 C6.61176471,13.1563025 6.35966387,13.2537815 6.10756303,13.2537815 C5.85546218,13.2537815 5.60336134,13.1563025 5.41176471,12.9647059 L2.62521008,10.1714286 C2.45714286,10.0033613 2.35294118,9.77815126 2.3394958,9.5394958 L2.20504202,7.53613445 L0.292436975,5.61680672 C0.107563025,5.43193277 0.00336134454,5.17983193 0.00336134454,4.91764706 C0.00336134454,4.65546218 0.107563025,4.40336134 0.292436975,4.21848739 L4.18151261,0.319327731 C4.56470588,-0.0638655462 5.18991597,-0.0638655462 5.57310924,0.319327731 L7.47226891,2.22184874 L9.5394958,2.28235294 C9.79159664,2.28907563 10.0302521,2.39327731 10.205042,2.57142857 L12.9915966,5.36470588 C13.3781513,5.74789916 13.3781513,6.37310924 12.9915966,6.75966387 L11.892437,7.86554622 Z" id="Cinturon-de-seguridad-_3Masa"></path>
        </g>
    </g>
</svg>

<svg width="24" height="24" viewBox="0 0 24 24" xmlns="http://www.w3.org/2000/svg"><path d="M23.334 18.077a.984.984 0 010 1.395l-3.889 3.896a.969.969 0 01-.695.29.969.969 0 01-.696-.29l-2.04-2.044-2.159-.127a.992.992 0 01-.638-.286l-2.951-2.955a.99.99 0 010-1.395l.45-.453-1.61-1.614a.984.984 0 01-.29-.699c0-.262.105-.511.29-.7l3.889-3.898a.98.98 0 011.392 0l1.61 1.613.45-.45a.98.98 0 011.392 0l2.948 2.954a.98.98 0 01.282.602l.202 2.097 2.063 2.064zM11.892 7.866c-.016.02-.033.037-.05.053l-5.039 5.046a.983.983 0 01-1.391 0L2.625 10.17a.975.975 0 01-.286-.632l-.134-2.003-1.913-1.92a.99.99 0 010-1.398L4.182.32a.986.986 0 011.391 0l1.9 1.903 2.066.06c.253.007.491.111.666.29l2.787 2.793a.984.984 0 010 1.395l-1.1 1.106z" fill="#5CB615" fill-rule="nonzero"/></svg>
